img/icon-search.svg

<svg width="16" height="16" viewBox="0 0 16 16" fill="none" xmlns="http://www.w3.org/2000/svg">
<path d="M6.66671 12C7.85003 11.9998 8.99924 11.6036 9.93137 10.8747L12.862 13.8053L13.8047 12.8627L10.874 9.932C11.6034 8.99977 11.9998 7.85029 12 6.66666C12 3.726 9.60737 1.33333 6.66671 1.33333C3.72604 1.33333 1.33337 3.726 1.33337 6.66666C1.33337 9.60733 3.72604 12 6.66671 12ZM6.66671 2.66666C8.87271 2.66666 10.6667 4.46066 10.6667 6.66666C10.6667 8.87266 8.87271 10.6667 6.66671 10.6667C4.46071 10.6667 2.66671 8.87266 2.66671 6.66666C2.66671 4.46066 4.46071 2.66666 6.66671 2.66666Z" fill="black"/>
</svg>

<svg width="16" height="16" fill="none" xmlns="http://www.w3.org/2000/svg"><path d="M6.667 12a5.301 5.301 0 003.264-1.125l2.931 2.93.943-.942-2.931-2.931A5.3 5.3 0 0012 6.667a5.34 5.34 0 00-5.333-5.334 5.34 5.34 0 00-5.334 5.334A5.34 5.34 0 006.667 12zm0-9.333c2.206 0 4 1.794 4 4s-1.794 4-4 4-4-1.794-4-4 1.794-4 4-4z" fill="#000"/></svg>
